!!!!SEGMENT: pl-kk--kk-i-389--003-005_anonim--missa-no-3-sanctus.krn
!!!cenid: 17xx:2472
!!!COM: Anonim
!!!COM-rismID: pe30004985
!!!CDT:
!!!CNT:
!!!OPR: [Missa] No. 3.
!!!OTL: Sanctus
!!!OMV: 005
!!!PDT:
!!!AGN: Sacred; Mass
!!!YEC: Copyright 2022 Narodowy Instytut Fryderyka Chopina (https://polishscores.org)
!!!YEM: License CC-BY-4.0 (https://creativecommons.org/licenses/by/4.0)
!!!SMS-siglum: PL-Kk
!!!SMS-shelfmark: Kk.I.389
!!!SMS-variant:
!!!SMS-altvar:
!!!SMS-shelfwork: 003-005 M
!!!NIFC-rismSourceID: 1001146182
!!!NIFC-rismChildID: 1001146400
!!!NIFC-islandoraID: pl-kk:6976
!!!URL-pdf-islandora: https://repozytorium.nifc.pl/islandora/object/pl-kk%3A6976/datastream/PDF/view
!!!URL-scan: https://polish.musicsources.pl/pl/lokalizacje/galeria/rekopisy/5999/1 @EN{Scan on Polish Music Sources Website} @PL{Skany w portalu Dziedzictwo Muzyki Polskiej w otwartym dostępie}
!!!IIIF:
!!!ONB-nifc: UWAGA: S – skan 6-7, A – 25-26 , T – 44-45 , B – 63-64 . Części Mszy: Rorate, Kyrie, Gloria, Graduale, Sanctus, Benedictus, Agnus, Dona
!!!AIN: 1 alto 1 bass 1 soprn 1 tenor
!!!key: F
**kern	**text	**kern	**text	**kern	**text	**kern	**text
*part4	*part4	*part3	*part3	*part2	*part2	*part1	*part1
*staff4	*staff4	*staff3	*staff3	*staff2	*staff2	*staff1	*staff1
*I"Basso.	*	*I"Tenore.	*	*I"Alto.	*	*I"Soprano.	*
*I'[B]	*	*I'[T]	*	*I'[A]	*	*I'[S]	*
*ICvox	*	*ICvox	*	*ICvox	*	*ICvox	*
*Ibass	*	*Itenor	*	*Ialto	*	*Isoprn	*
*clefF4	*	*clefC4	*	*clefC3	*	*clefC1	*
*k[b-]	*	*k[b-]	*	*k[b-]	*	*k[b-]	*
*F:	*	*F:	*	*F:	*	*F:	*
*M3/2	*	*M3/2	*	*M3/2	*	*M3/2	*
=1	=1	=1	=1	=1	=1	=1	=1
!!LO:TX:t=P:problem:all\right	!	!	!	!	!	!	!
*2\right	*	*	*	*	*	*2\right	*
2F\	San-	4A\	San-	4f\	San-	2cc\	San-
.	.	4G\	.	4e\	.	.	.
2FF/	-ctus	4A\	.	4f\	.	2cc\	-ctus
.	.	4B-\	.	4g\	.	.	.
2r	.	4c\	.	4a\	.	2r	.
.	.	4A\	-ctus,	4f\	.	.	.
=2	=2	=2	=2	=2	=2	=2	=2
2c\	san-	4c\	San-	4g\	.	2ee\	San-
.	.	4d\	.	4f\	.	.	.
2C/	-ctus	4e\	.	4g\	.	2cc\	-ctus
.	.	4f\	.	4a\	.	.	.
2r	.	4g\	.	4b-\	.	2r	.
.	.	4e\	-ctus	4g\	-ctus,	.	.
=3	=3	=3	=3	=3	=3	=3	=3
2F\	san-	4c\	San-	4f\	San-	2a\	San-
.	.	4B-\	.	4e\	.	.	.
2A\	.	4A\	.	4f\	.	2cc\	.
.	.	4B-\	.	4g\	.	.	.
2F\	-ctus	4c\	.	4a\	.	2a\	.
.	.	4A\	-ctus	4f\	-ctus	.	.
=4	=4	=4	=4	=4	=4	=4	=4
*	*	*2\right	*	*2\right	*	*	*
2c\	san-	2A\	san-	2f\	san-	1cc	-ctus,
2C/	-ctus	2G/	-ctus	2e\	-ctus,	.	.
2r	.	2r	.	2r	.	2r	.
!	!	!LO:LB:g=original	!	!LO:LB:g=original	!	!	!
=5	=5	=5	=5	=5	=5	=5	=5
2D\	san-	4d\	San-	4f\	San-	2a\	San-
.	.	4c#X\	.	4e\	.	.	.
2D\	-ctus	4d\	.	4f\	.	2a\	-ctus
.	.	4e\	.	4g\	.	.	.
2r	.	4f\	.	4a\	.	2r	.
.	.	4d\	-ctus	4f\	-ctus	.	.
!LO:LB:g=original	!	!	!	!	!	!LO:LB:g=original	!
=6	=6	=6	=6	=6	=6	=6	=6
2A\	San-	4c#X\	san-	4e\	San-	2a\	San-
.	.	4Bn\	.	4d\	.	.	.
2AA/	-ctus	4c#\	.	4e\	.	2a\	-ctus
.	.	4d\	.	4f\	.	.	.
2r	.	4e\	.	4g\	.	2r	.
.	.	4c#\	-ctus	4e\	-ctus	.	.
=7	=7	=7	=7	=7	=7	=7	=7
2D\	san-	4d\	san-	4f\	San-	1.a	San-
.	.	4c#X\	.	4e\	.	.	.
2F\	.	4d\	.	4f\	.	.	.
.	.	4f\	.	4a\	.	.	.
2D\	-ctus	4e\	.	4g\	.	.	.
.	.	4d\	-ctus	4f\	-ctus	.	.
=8	=8	=8	=8	=8	=8	=8	=8
2A\	san-	2d\	san-	2f\	san-	1a	-ctus
2AA/	-ctus	2c#X\	-ctus	2e\	-ctus	.	.
2r	.	2r	.	2r	.	2r	.
=9	=9	=9	=9	=9	=9	=9	=9
2.A\	Do-	2.e\	Do-	2.g\	Do-	2.cc#X\	Do-
4A\	-mi-	4e\	-mi-	4g\	-mi-	4cc#\	-mi-
2c#X\	-nus	2A\	-nus	2a\	-nus	2ee\	-nus
=10	=10	=10	=10	=10	=10	=10	=10
2d\	De-	2A\	De-	2a\	De-	2ff\	De-
!	!	!LO:LB:g=original	!	!LO:LB:g=original	!	!	!
2A\	.	2c#X\	.	2g\	.	2ee\	.
2D\	-us	2A\	-us	2f\	-us	2dd\	-us
=11	=11	=11	=11	=11	=11	=11	=11
2G\	sa-	2B-\	sa-	2g\	sa-	2ee\	sa-
2A\	.	2A\	.	2f\	.	2dd\	.
2AA/	-ba-	2A\	-ba-	2e\	-ba-	2cc#X\	-ba-
=12	=12	=12	=12	=12	=12	=12	=12
1D	-ot,	1A	-ot,	1.f	-ot,	1.dd	-ot.
2r	.	2r	.	.	.	.	.
!LO:LB:g=original	!	!	!	!	!	!LO:LB:g=original	!
=13||	=13||	=13||	=13||	=13||	=13||	=13||	=13||
*M2/2	*	*M2/2	*	*M2/2	*	*M2/2	*
*met(C.|)	*	*met(C.|)	*	*met(C.|)	*	*met(C.|)	*
!	!	!	!	!	!	!LO:TX:t=P:problem:brak zmiany klucza	!
2F\	Ple-	2cn\	Ple-	2a\	Ple-	2a\	Ple-
4E\	-ni	4B-X\	-ni	4g\	-ni	4cc\	-ni
4F\	sunt	4A\	sunt	4f\	sunt	4cc\	sunt
=14	=14	=14	=14	=14	=14	=14	=14
2C/	ce-	2B-\	ce-	2g\	ce-	2ee\	ce-
4C/	-li	4A\	-li	4f\	-li	4cc\	-li
4C/	et	4G\	et	4e\	et	4cc\	et
=15	=15	=15	=15	=15	=15	=15	=15
2F\	ter-	4A/	ter-	4f\	Ter-	1cc	ter-
.	.	8G/L	.	8e\L	.	.	.
.	.	8A/J	.	8f\J	.	.	.
4E\	.	4B-\	.	4g\	.	.	.
4F\	.	4A\	.	4f\	.	.	.
=16	=16	=16	=16	=16	=16	=16	=16
2C/	-ra	2G/	-ra	2e\	-ra	2cc\	-ra
2r	.	2r	.	2r	.	2r	.
!	!	!LO:LB:g=original	!	!	!	!	!
=17	=17	=17	=17	=17	=17	=17	=17
2C/	glo-	2.e\	glo-	2.g\	glo-	2.b-\	glo-
4c\	.	.	.	.	.	.	.
8B-\	-ri-	8e\	-ri-	8g\	-ri-	8cc\	-ri-
8B-\	-a	8e\	-a	8g\	-a	8cc\	-a
!	!	!	!	!LO:LB:g=original	!	!	!
=18	=18	=18	=18	=18	=18	=18	=18
4A\	glo-	2c\	glo-	4f\	glo-	4a\	glo-
4G\	.	.	.	4g\	.	4b-\	.
4F\	.	4c\	-ri-	4a\	.	4cc\	-ri-
4E\	.	4c\	-a	4b-\	.	4g\	-a
=19	=19	=19	=19	=19	=19	=19	=19
4F\	.	4c\	glo-	4a\	.	4a\	glo-
4G\	.	4B-\	.	4g\	.	4b-\	.
4A\	-ri-	4A\	.	4f\	-ri-	4cc\	-ri-
4B-\	-a	4B-\	.	4g\	-a	4ee\	-a
!LO:LB:g=original	!	!	!	!	!	!LO:LB:g=original	!
=20	=20	=20	=20	=20	=20	=20	=20
4c\	glo-	4A\	.	4a\	glo-	4cc\	glo-
4B-\	.	4B-\	.	4g\	.	4cc\	-ri-
4A\	-ri-	4c\	-ri-	4f\	-ri-	2cc\	-a
4B-\	-a	4B-\	-a	4g\	-a	.	.
=21	=21	=21	=21	=21	=21	=21	=21
2c\	tu-	2A\	tu-	2f\	tu-	1cc	tu-
2C/	.	2G/	.	2e\	.	.	.
=22	=22	=22	=22	=22	=22	=22	=22
1F	-a,	1A	-as,	1f	-aſ	1cc	-a,
=23||	=23||	=23||	=23||	=23||	=23||	=23||	=23||
*M2/2	*	*M2/2	*	*M2/2	*	*M2/2	*
*met(C.|)	*	*met(C.|)	*	*met(C.|)	*	*met(C.|)	*
4F\	O-	2c\	O-	2a\	O-	2a\	O-
4A\	.	.	.	.	.	.	.
4c\	-san-	2B-\	-san-	2g\	-san-	2b-\	-san-
4C/	.	.	.	.	.	.	.
=24	=24	=24	=24	=24	=24	=24	=24
2F\	-na	2A\	-na,	2f\	-na	2cc\	-na
2r	.	4r	.	4r	.	4r	.
.	.	4A\	O-	4f\	o-	4cc\	o-
!	!	!LO:LB:g=original	!	!	!	!	!
=25	=25	=25	=25	=25	=25	=25	=25
!LO:TX:a:t=1.	!	!	!	!	!	!	!
1r	.	4G\	-san-	4e\	-san-	1cc	-san-
.	.	4A\	.	4f\	.	.	.
!	!	!	!	!LO:LB:g=original	!	!	!
.	.	8qc/	.	8qa/	.	.	.
.	.	4B-\	.	4g\	.	.	.
.	.	8A\L	.	8f\L	.	.	.
.	.	8G\J	.	8e\J	.	.	.
=26	=26	=26	=26	=26	=26	=26	=26
2r	.	2A\	-na	2f\	-na,	2cc\	-na,
4r	.	4r	.	4r	.	2r	.
4F\	O-	4f\	O-	4a\	o-	.	.
=27	=27	=27	=27	=27	=27	=27	=27
!	!	!	!	!	!	!LO:TX:a:t=1.	!
1C	-san-	4e\	-san-	4g\	-san-	1r	.
.	.	4f\	.	4a\	.	.	.
.	.	8qa/	.	8qcc/	.	.	.
.	.	4g\	.	4b-\	.	.	.
.	.	8f\L	.	8a\L	.	.	.
.	.	8e\J	.	8g\J	.	.	.
=28	=28	=28	=28	=28	=28	=28	=28
2F\	-na	2f\	-na	2a\	-na	2r	.
4r	.	4r	.	4r	.	4r	.
4F\	O-	4f\	O-	4a\	o-	4cc\	O-
!LO:LB:g=original	!	!	!	!	!	!LO:LB:g=original	!
=29	=29	=29	=29	=29	=29	=29	=29
4.C/	-san-	4.e\	-san-	4.g\	-san-	4.cc\	-san-
8C/	-na	8f\	-na	8a\	-na	8cc\	-na
4C/	in	4g\	in	4b-\	in	4ee\	in
4C/	ex-	4g\	ex-	4b-\	ex-	4ee\	ex-
=30	=30	=30	=30	=30	=30	=30	=30
4F\	-cel-	4f\	-cel-	4a\	-cel-	4cc\	-cel-
4E\	.	4c\	-sis	4g\	.	4b-\	-sis
4F\	-sis	4c\	in	4f\	.	4a\	in
8B-\	in	4d\	ex-	4g\	.	4b-\	ex-
8B-\	ex-	.	.	.	.	.	.
!	!	!LO:LB:g=original	!	!	!	!	!
=31	=31	=31	=31	=31	=31	=31	=31
2c\	-cel-	1c	-cel-	2f\	.	2a\	-cel-
!	!	!	!	!LO:LB:g=original	!	!	!
2C/	.	.	.	2e\	.	2g\	.
=32	=32	=32	=32	=32	=32	=32	=32
2F\	-sis	2c\	-sis.	2f\	-sis,	2a\	-sis
4r	.	4r	.	4r	.	4r	.
4F\	o-	4f\	O-	4a\	O-	4cc\	O-
=33	=33	=33	=33	=33	=33	=33	=33
4.C/	-san-	4.e\	-san-	4.g\	-san-	4.cc\	-san-
8C/	-na	8f\	-na	8a\	.	8cc\	-na
4C/	in	4g\	in	4b-\	.	4ee\	in
4C/	ex-	4g\	ex-	4b-\	-na	4ee\	ex-
=34	=34	=34	=34	=34	=34	=34	=34
4F\	-cel-	4f\	-cel-	4a\	in	4cc\	-cel-
4E\	-sis	4c\	-sis	4g\	.	4b-\	-sis
4F\	in	4c\	in	4f\	.	4a\	in
4BB-/	ex-	4d\	ex-	4g\	ex-	4b-\	ex-
=35	=35	=35	=35	=35	=35	=35	=35
1C	-cel-	1c	-cel-	2f\	-cel-	2a\	-cel-
.	.	.	.	2e\	.	2g\	.
=36	=36	=36	=36	=36	=36	=36	=36
1F	-sis.	1c	-sis.	1f	-sis.	1a	-sis.
==	==	==	==	==	==	==	==
*-	*-	*-	*-	*-	*-	*-	*-
!!!system-decoration: [(s1,s2,s3,s4)]
!!!ENC: Filip Voros
!!!END: 2023-11-06
!!!EED: Jan Barakat
!!!EEV: 2023-11-28
